build/img/svg-sprite/analysis.svg

<svg width="81" height="81" viewBox="0 0 81 81" fill="none" xmlns="http://www.w3.org/2000/svg">
<g clip-path="url(#clip0)">
<path d="M40.5 21.0793L50.1178 13.0645H62.7096V0H31.3548V13.0645H40.5V21.0793ZM33.9677 10.4516V2.6129H60.0967V10.4516H49.1724L43.1129 15.5014V10.4516H33.9677Z" fill="#1D1D1D"/>
<path d="M36.5807 5.22583H39.1936V7.83873H36.5807V5.22583Z" fill="#1D1D1D"/>
<path d="M41.8065 5.22583H52.2581V7.83873H41.8065V5.22583Z" fill="#1D1D1D"/>
<path d="M54.8709 5.22583H57.4838V7.83873H54.8709V5.22583Z" fill="#1D1D1D"/>
<path d="M66.5046 78.387L65.4482 67.811C69.8103 67.1214 73.1613 63.3443 73.1613 58.7902V41.8064H67.9355V40.0011C67.9355 38.2251 66.9595 36.6303 65.3902 35.8125C66.9505 34.3791 67.9355 32.3295 67.9355 30.0483V27.4354C67.9355 23.1122 64.4199 19.5967 60.0968 19.5967C55.7736 19.5967 52.2581 23.1122 52.2581 27.4354V30.0483C52.2581 33.4305 54.4149 36.3101 57.4226 37.4073L50.4107 44.4193H43.0842C42.9381 42.2414 41.4422 40.343 39.323 39.737L33.9677 38.2085V35.875C35.567 34.4391 36.5806 32.3633 36.5806 30.0483V27.4354C36.5806 23.1122 33.0651 19.5967 28.7419 19.5967C24.4188 19.5967 20.9032 23.1122 20.9032 27.4354V30.0483C20.9032 32.362 21.9169 34.4378 23.5161 35.875V38.2098L18.1608 39.7382C15.9294 40.3742 14.371 42.4411 14.371 44.7631V49.6451H9.14516V57.4838H11.7581V78.387H0V80.9999H81V78.387H66.5046ZM54.871 57.4838V51.4925L64.1284 42.235C64.7976 41.5659 65.1956 40.667 65.2849 39.7293C65.2964 39.8205 65.3226 39.9066 65.3226 40.0011V56.1773C65.3226 58.3379 63.5638 60.0967 61.4032 60.0967H50.9516V57.4838H54.871ZM50.9516 67.9354H57.6083L58.6532 78.387H50.9516V67.9354ZM60.2339 67.9354H62.8341L63.879 78.387H61.2788L60.2339 67.9354ZM67.9355 56.1773V44.4193H70.5484V58.7902C70.5484 62.3919 67.6178 65.3225 64.0161 65.3225H50.9516V62.7096H61.4032C65.0049 62.7096 67.9355 59.779 67.9355 56.1773ZM54.871 30.0483V27.4354C54.871 24.5533 57.2147 22.2096 60.0968 22.2096C62.9789 22.2096 65.3226 24.5533 65.3226 27.4354V30.0483C65.3226 32.9304 62.9789 35.2741 60.0968 35.2741C57.2147 35.2741 54.871 32.9304 54.871 30.0483ZM51.4926 47.0322L60.209 38.3157C60.4821 38.0427 60.8597 37.887 61.245 37.887C62.0526 37.887 62.7097 38.5441 62.7097 39.3517C62.7097 39.737 62.554 40.1146 62.281 40.3876L53.0236 49.6451H39.1935C38.4727 49.6451 37.8871 49.0595 37.8871 48.3386C37.8871 47.6178 38.4727 47.0322 39.1935 47.0322H51.4926ZM23.5161 27.4354C23.5161 24.5533 25.8598 22.2096 28.7419 22.2096C31.624 22.2096 33.9677 24.5533 33.9677 27.4354V30.0483C33.9677 32.9304 31.624 35.2741 28.7419 35.2741C25.8598 35.2741 23.5161 32.9304 23.5161 30.0483V27.4354ZM28.7419 37.887C29.6593 37.887 30.5358 37.7199 31.3548 37.4296V38.833C31.0308 39.3332 30.1307 40.4999 28.7419 40.4999C27.3532 40.4999 26.4531 39.3332 26.129 38.833V37.4296C26.9481 37.7199 27.8246 37.887 28.7419 37.887ZM16.9839 44.7631C16.9839 43.6015 17.764 42.5693 18.8785 42.2503L24.2606 40.713C25.0184 41.7005 26.4933 43.1128 28.7419 43.1128C30.9906 43.1128 32.4655 41.7005 33.2233 40.7117L38.6054 42.2491C39.6063 42.5355 40.3042 43.4056 40.4439 44.418H39.1935C37.0329 44.418 35.2742 46.1767 35.2742 48.3373C35.2742 48.7973 35.368 49.2336 35.5147 49.6438H16.9839V44.7631ZM11.7581 52.258H52.2581V54.8709H11.7581V52.258ZM14.371 62.7096H18.2903V60.0967H14.371V57.4838H48.3387V60.0967H20.9032V62.7096H48.3387V78.387H45.227L42.6141 73.1612H20.0956L17.4827 78.387H14.371V62.7096ZM42.3053 78.387H20.4044L21.7108 75.7741H40.9988L42.3053 78.387Z" fill="#1D1D1D"/>
</g>
<defs>
<clipPath id="clip0">
<rect width="81" height="81" fill="white"/>
</clipPath>
</defs>
</svg>

<svg width="81" height="81" viewBox="0 0 81 81" fill="none" xmlns="http://www.w3.org/2000/svg"><g clip-path="url(#clip0)" fill="#1D1D1D"><path d="M40.5 21.08l9.618-8.015H62.71V0H31.355v13.065H40.5v8.014zm-6.532-10.628v-7.84h26.129v7.84H49.172l-6.06 5.05v-5.05h-9.144z"/><path d="M36.58 5.226h2.614v2.613H36.58V5.226zm5.226 0h10.452v2.613H41.806V5.226zm13.064 0h2.614v2.613H54.87V5.226zm11.635 73.161l-1.057-10.576c4.362-.69 7.713-4.467 7.713-9.02V41.805h-5.225V40a4.7 4.7 0 00-2.546-4.188 7.808 7.808 0 002.546-5.765v-2.613c0-4.323-3.516-7.838-7.84-7.838-4.322 0-7.838 3.515-7.838 7.838v2.613c0 3.383 2.157 6.262 5.165 7.36l-7.012 7.011h-7.327c-.146-2.178-1.642-4.076-3.761-4.682l-5.355-1.529v-2.333a7.812 7.812 0 002.613-5.827v-2.613c0-4.323-3.516-7.838-7.84-7.838-4.322 0-7.838 3.515-7.838 7.838v2.613a7.816 7.816 0 002.613 5.827v2.335l-5.355 1.528a5.246 5.246 0 00-3.79 5.025v4.882H9.145v7.839h2.613v20.903H0V81h81v-2.613H66.505zM54.87 57.484v-5.992l9.257-9.257a4.092 4.092 0 001.157-2.506c.011.092.038.178.038.272v16.176c0 2.16-1.76 3.92-3.92 3.92h-10.45v-2.613h3.919zm-3.92 10.451h6.657l1.045 10.452h-7.701V67.935zm9.283 0h2.6l1.045 10.452h-2.6l-1.045-10.452zm7.702-11.758V44.42h2.612v14.37a6.54 6.54 0 01-6.532 6.533H50.952V62.71h10.451a6.54 6.54 0 006.533-6.533zM54.87 30.048v-2.613a5.231 5.231 0 015.226-5.225 5.231 5.231 0 015.226 5.225v2.613a5.231 5.231 0 01-5.226 5.226 5.231 5.231 0 01-5.226-5.226zm-3.378 16.984l8.716-8.716a1.466 1.466 0 012.072 2.072l-9.257 9.257h-13.83a1.307 1.307 0 010-2.613h12.299zM23.516 27.435a5.231 5.231 0 015.226-5.225 5.231 5.231 0 015.226 5.225v2.613a5.231 5.231 0 01-5.226 5.226 5.231 5.231 0 01-5.226-5.226v-2.613zm5.226 10.452c.917 0 1.794-.167 2.613-.457v1.403c-.324.5-1.224 1.667-2.613 1.667s-2.289-1.167-2.613-1.667V37.43a7.8 7.8 0 002.613.457zm-11.758 6.876c0-1.161.78-2.194 1.894-2.513l5.383-1.537c.757.987 2.232 2.4 4.48 2.4 2.25 0 3.724-1.413 4.482-2.401l5.382 1.537c1.001.286 1.7 1.157 1.839 2.169h-1.25a3.924 3.924 0 00-3.92 3.92c0 .46.094.896.24 1.306h-18.53v-4.88zm-5.226 7.495h40.5v2.613h-40.5v-2.613zm2.613 10.452h3.92v-2.613h-3.92v-2.613h33.968v2.613H20.903v2.613H48.34v15.677h-3.112l-2.613-5.226H20.096l-2.613 5.226H14.37V62.71zm27.934 15.677h-21.9l1.306-2.613h19.288l1.306 2.613z"/></g><defs><clipPath id="clip0"><path fill="#fff" d="M0 0h81v81H0z"/></clipPath></defs></svg>
